X:1
T:Hosanna (Dykes), LM refrain
T:John Bacchus Dykes, 1865
T:Hosanna (Dykes), LM refrain
T:Public Domain
C:John Bacchus Dykes, 1865
Z:Public Domain
%%score ( 1 2 ) ( 3 4 )
L:1/8
M:4/4
K:A
V:1 treble 
V:2 treble 
V:3 bass 
V:4 bass 
V:1
 [EA]2 | [Ee]2 [Gd]2 [Ac]2 [Ec]2 | [DB]2 [DB]2 [CA]2 E2 | E2 E2 E2 (FG) | %4
 [EA]2 [^DB]2 [EB]2 [EB]2 | [Dd]2 [Ec]2 [DB]2 [DA]2 | [Cc]2 [DB]2 [CA]2 [Ee]2 | %7
 [Gd]2 [Ac]2 B2 z ^D x | [EG]2 [^DF]2 E2 E2 | E2 E2 E2 (FG) | [EA]2 [EB]2 [Ac]2 [Ad]2 | %11
 ([E-A]4 z2) d2 x2 | [EAc]6 |] %13
V:2
 x2 | x8 | x6 E2 | E2 E2 E2 E2 | x8 | x8 | x8 | x4 E3 A2 | x6 E2 | E2 E2 E2 E2 | x8 | e6 G4 | x6 |] %13
V:3
 [A,C]2 | C2 [B,D]2 [A,E]2 [C,A,]2 | [D,F,]2 [E,G,]2 [A,,A,]2 [A,C]2 | %3
 [B,D]2 [G,B,]2 [A,C]2 [G,B,]2 | [F,A,]2 [B,,A,]2 [E,G,]2 [E,G,]2 | %5
 [B,,F,]2 (G,^A,) [B,,B,]2 [D,F,]2 | [A,,E,]2 (F,G,) [A,,A,]2 [C,A,]2 | %7
 [B,,B,]2 [A,,C]2 G,2 [F,A,]2 x | E,2 z A, [E,G,]2 ([E,G,][F,A,]) | [G,B,]2 [A,C]2 [B,D]2 [B,D]2 | %10
 [A,C]2 [G,E]2 [F,E]2 [F,D]2 | (C4 B,4) x2 | [A,,A,]6 |] %13
V:4
 x2 | C2 x6 | x8 | x8 | x8 | x2 B,,2 x4 | x2 A,,2 x4 | x9 | B,3 B,,2 x3 | x8 | x8 | E,8 x2 | x6 |] %13

